image/innerpage/logo.svg

<svg fill="none" height="48" viewBox="0 0 48 48" width="48" xmlns="http://www.w3.org/2000/svg" xmlns:xlink="http://www.w3.org/1999/xlink"><linearGradient id="a" gradientUnits="userSpaceOnUse" x1="24" x2="24" y1="0" y2="48"><stop offset="0" stop-color="#8ccac2"/><stop offset="1" stop-color="#cbe1cb"/></linearGradient><clipPath id="b"><path d="m0 0h48v48h-48z"/></clipPath><g clip-path="url(#b)"><circle cx="24" cy="24" fill="url(#a)" r="24"/><g stroke="#fff"><circle cx="24.5" cy="23.5" r="16"/><path d="m20.5 26c0 1.3057-.3186 2.4635-.8074 3.2783-.4949.8247-1.1088 1.2217-1.6926 1.2217s-1.1977-.397-1.6926-1.2217c-.4888-.8148-.8074-1.9726-.8074-3.2783s.3186-2.4635.8074-3.2783c.4949-.8247 1.1088-1.2217 1.6926-1.2217s1.1977.397 1.6926 1.2217c.4888.8148.8074 1.9726.8074 3.2783z"/><path d="m33.5 26c0 1.3057-.3186 2.4635-.8074 3.2783-.4949.8247-1.1088 1.2217-1.6926 1.2217s-1.1977-.397-1.6926-1.2217c-.4888-.8148-.8074-1.9726-.8074-3.2783s.3186-2.4635.8074-3.2783c.4949-.8247 1.1088-1.2217 1.6926-1.2217s1.1977.397 1.6926 1.2217c.4888.8148.8074 1.9726.8074 3.2783z"/><path d="m16 24 4 4"/><path d="m29 24 4 4"/><path d="m34 31h2.3839"/><path d="m12.6161 31h2.1517"/><path d="m35 15-6 2"/><path d="m34.7954 17.9095-5.3892-3.6774"/><path d="m35.6192 15.7583-3.6192-1.7902"/><path d="m30.5 33.5c-2.1667 1.8333-7.6 4.4-12 0"/></g></g></svg>

<svg width="48" height="48" viewBox="0 0 48 48" fill="none" xmlns="http://www.w3.org/2000/svg">
<g clip-path="url(#clip0_313_18939)">
<circle cx="24" cy="24" r="24" fill="url(#paint0_linear_313_18939)"/>
<circle cx="24.5" cy="23.5" r="16" stroke="white"/>
<path d="M20.5 26C20.5 27.3057 20.1814 28.4635 19.6926 29.2783C19.1977 30.103 18.5838 30.5 18 30.5C17.4162 30.5 16.8023 30.103 16.3074 29.2783C15.8186 28.4635 15.5 27.3057 15.5 26C15.5 24.6943 15.8186 23.5365 16.3074 22.7217C16.8023 21.897 17.4162 21.5 18 21.5C18.5838 21.5 19.1977 21.897 19.6926 22.7217C20.1814 23.5365 20.5 24.6943 20.5 26Z" stroke="white"/>
<path d="M33.5 26C33.5 27.3057 33.1814 28.4635 32.6926 29.2783C32.1977 30.103 31.5838 30.5 31 30.5C30.4162 30.5 29.8023 30.103 29.3074 29.2783C28.8186 28.4635 28.5 27.3057 28.5 26C28.5 24.6943 28.8186 23.5365 29.3074 22.7217C29.8023 21.897 30.4162 21.5 31 21.5C31.5838 21.5 32.1977 21.897 32.6926 22.7217C33.1814 23.5365 33.5 24.6943 33.5 26Z" stroke="white"/>
<path d="M16 24L20 28" stroke="white"/>
<path d="M29 24L33 28" stroke="white"/>
<path d="M34 31H36.3839" stroke="white"/>
<path d="M12.6161 31H14.7678" stroke="white"/>
<path d="M35 15L29 17" stroke="white"/>
<path d="M34.7954 17.9095L29.4062 14.2321" stroke="white"/>
<path d="M35.6192 15.7583L32 13.9681" stroke="white"/>
<path d="M30.5 33.5C28.3333 35.3333 22.9 37.9 18.5 33.5" stroke="white"/>
</g>
<defs>
<linearGradient id="paint0_linear_313_18939" x1="24" y1="0" x2="24" y2="48" gradientUnits="userSpaceOnUse">
<stop stop-color="#8CCAC2"/>
<stop offset="1" stop-color="#CBE1CB"/>
</linearGradient>
<clipPath id="clip0_313_18939">
<rect width="48" height="48" fill="white"/>
</clipPath>
</defs>
</svg>
